nova/resources/svg/fluent/reorder.svg

<svg width="24" height="24" viewBox="0 0 24 24" fill="none" xmlns="http://www.w3.org/2000/svg">
<path d="M2.75 13.25H21.25C21.6642 13.25 22 13.5858 22 14C22 14.3797 21.7178 14.6935 21.3518 14.7432L21.25 14.75H2.75C2.33579 14.75 2 14.4142 2 14C2 13.6203 2.28215 13.3065 2.64823 13.2568L2.75 13.25H21.25H2.75ZM2.75 9.25H21.25C21.6642 9.25 22 9.58579 22 10C22 10.3797 21.7178 10.6935 21.3518 10.7432L21.25 10.75H2.75C2.33579 10.75 2 10.4142 2 10C2 9.6203 2.28215 9.30651 2.64823 9.25685L2.75 9.25H21.25H2.75Z" fill="currentColor"/>
</svg>

<svg viewBox="0 0 24 24" fill="none" xmlns="http://www.w3.org/2000/svg"><path d="M2.75 13.25h18.5a.75.75 0 01.102 1.493l-.102.007H2.75a.75.75 0 01-.102-1.493l.102-.007h18.5-18.5zm0-4h18.5a.75.75 0 01.102 1.493l-.102.007H2.75a.75.75 0 01-.102-1.493l.102-.007h18.5-18.5z" fill="currentColor"/></svg>
